X: 2
A:Adam de la Halle
T:Diex soit en cheste maison
N: (written out)
M:3/4
L:1/4
Q:1/4=130
K:F Lydian
%
V:1 clef=treble-8 middle=B,
V:2 clef=treble-8 middle=B,
V:3 clef=treble-8 middle=B,
%%MIDI program 1       70 bassoon
%%MIDI program 2       71 clarinet
%%MIDI program 3       72 piccolo
%
[V:1] E  F2   |(E/D/)   (C/_B,/A,)| B,   (CD) |(E G2) | E  D2       | E   (D/C/B,)  | C          (DE) | F2  z || 
[V:2] C (C_B,)|(A,/G,/)  F,2      | E,    F,2 |(A,G,2)| A, B,2      | C    D2       |(C/4B,/4A,/) G,2 | F,2 z || 
[V:3] A, F,2  |(A,/B,/) (CD)      |(E/D/) C2  |(C D2) | C (B,/A,/G,)| A, (_B,/A,/G,)| F,          B,2 | C2  z ||
